X: 1
T:Piobaireachd of Donald Dubh
M:6/8
L:1/8
Q:80
C:
S:March
K:HP
|: {gef}e3/2c/2{G}c{g}f3/2d/2{G}d|
{ef}e3/2c/2{G}c{gcd}c3/2B/2{G}A|
{gef}e3/2c/2{G}c{g}f3/2d/2{G}d|  !
{ef}e3/2c/2{G}A{gBd}B2{G}A|
{gef}e3/2c/2{G}c{g}f3/2d/2{G}d|
{ef}e3/2c/2{G}c{gcd}c3/2B/2{G}A|  !
{g}B2c{Gdc}d3/2e/2f|
{gef}e3/2c/2{G}A{gBd}B2{G}A:| |:
{gef}e3/2c/2{G}c{gfg}f3/2d/2{G}d|  !
{gef}e3/2c/2{G}c{gcd}c3/2B/2{G}A|
{g}B2c{Gdc}d3/2e/2f|
{gef}e3/2c/2{G}A{gBd}B2{G}A|  !
{gef}e3/2c/2{G}c{gfg}f3/2d/2{G}d|
{gef}e3/2c/2{G}c{gcd}c3/2B/2{G}A|
{g}B2c{Gdc}d3/2e/2f|  !
{gef}e3/2c/2{G}A{gBd}B2{G}A:| |:
{gef}e2A{gfg}f2A|
{gef}e2Ac3/2B/2{G}A|  !
{gef}e2A{gfg}f2A|
{gef}e3/2c/2{G}A{gBd}B2{G}A|
{gef}e2A{gfg}f2A|  !
{gef}e2a{cd}c3/2B/2{G}A|
{g}B2c{Gdc}d3/2e/2f|
{gef}e3/2c/2{G}A{gBd}B2{G}A:| |:  !
{ag}a2e{ag}a2f|
{ag}a2e{gcd}c3/2B/2{G}A|
{ag}a2e{ag}a2f|  !
{gef}e3/2c/2{G}A{gBd}B2{G}A|
{ag}a2e{ag}a2f|
a2{GdG}a{cd}c3/2B/2{G}A|  !
{g}B2c{Gdc}d3/2e/2f|
{gef}e3/2c/2{G}A{gBd}B2{G}A:|
